images/3246163.svg

<?xml version="1.0" encoding="UTF-8"?>
<svg xmlns="http://www.w3.org/2000/svg" xmlns:xlink="http://www.w3.org/1999/xlink" width="300pt" height="300pt" viewBox="0 0 300 300" version="1.1">
<defs>
<g>
<symbol overflow="visible" id="glyph0-0">
<path style="stroke:none;" d="M 0.546875 1.9375 L 0.546875 -7.75 L 6.046875 -7.75 L 6.046875 1.9375 Z M 1.171875 1.328125 L 5.4375 1.328125 L 5.4375 -7.140625 L 1.171875 -7.140625 Z M 1.171875 1.328125 "/>
</symbol>
<symbol overflow="visible" id="glyph0-1">
<path style="stroke:none;" d="M 1.078125 -8.015625 L 2.546875 -8.015625 L 6.09375 -1.3125 L 6.09375 -8.015625 L 7.15625 -8.015625 L 7.15625 0 L 5.6875 0 L 2.125 -6.703125 L 2.125 0 L 1.078125 0 Z M 1.078125 -8.015625 "/>
</symbol>
<symbol overflow="visible" id="glyph0-2">
<path style="stroke:none;" d="M 1.078125 -8.015625 L 2.171875 -8.015625 L 2.171875 -4.734375 L 6.109375 -4.734375 L 6.109375 -8.015625 L 7.1875 -8.015625 L 7.1875 0 L 6.109375 0 L 6.109375 -3.8125 L 2.171875 -3.8125 L 2.171875 0 L 1.078125 0 Z M 1.078125 -8.015625 "/>
</symbol>
</g>
</defs>
<g id="surface52789">
<rect x="0" y="0" width="300" height="300" style="fill:rgb(100%,100%,100%);fill-opacity:1;stroke:none;"/>
<path style="fill:none;stroke-width:1.2;stroke-linecap:butt;stroke-linejoin:miter;stroke:rgb(0%,0%,0%);stroke-opacity:1;stroke-miterlimit:10;" d="M 55.222656 180.984375 L 35.25 161.246094 "/>
<path style="fill:none;stroke-width:1.2;stroke-linecap:butt;stroke-linejoin:miter;stroke:rgb(0%,0%,0%);stroke-opacity:1;stroke-miterlimit:10;" d="M 82.300781 173.554688 L 55.222656 180.984375 "/>
<path style="fill:none;stroke-width:1.2;stroke-linecap:butt;stroke-linejoin:miter;stroke:rgb(0%,0%,0%);stroke-opacity:1;stroke-miterlimit:10;" d="M 35.25 161.246094 L 42.355469 134.078125 "/>
<path style="fill:none;stroke-width:1.2;stroke-linecap:butt;stroke-linejoin:miter;stroke:rgb(0%,0%,0%);stroke-opacity:1;stroke-miterlimit:10;" d="M 42.355469 134.078125 L 55.898438 130.367188 "/>
<path style="fill:none;stroke-width:1.2;stroke-linecap:butt;stroke-linejoin:miter;stroke:rgb(0%,0%,100%);stroke-opacity:1;stroke-miterlimit:10;" d="M 55.898438 130.367188 L 69.4375 126.652344 "/>
<path style="fill:none;stroke-width:1.2;stroke-linecap:butt;stroke-linejoin:miter;stroke:rgb(0%,0%,100%);stroke-opacity:1;stroke-miterlimit:10;" d="M 69.4375 126.652344 L 79.421875 136.519531 "/>
<path style="fill:none;stroke-width:1.2;stroke-linecap:butt;stroke-linejoin:miter;stroke:rgb(0%,0%,0%);stroke-opacity:1;stroke-miterlimit:10;" d="M 79.421875 136.519531 L 89.410156 146.390625 "/>
<path style=" stroke:none;fill-rule:nonzero;fill:rgb(100%,100%,100%);fill-opacity:1;" d="M 61.4375 120.152344 L 78.4375 120.152344 L 78.4375 133.152344 L 61.4375 133.152344 Z M 61.4375 120.152344 "/>
<g style="fill:rgb(0%,0%,100%);fill-opacity:1;">
  <use xlink:href="#glyph0-1" x="61.4375" y="130.053711"/>
  <use xlink:href="#glyph0-2" x="69.420898" y="130.053711"/>
</g>
<path style="fill:none;stroke-width:1.2;stroke-linecap:butt;stroke-linejoin:miter;stroke:rgb(0%,0%,0%);stroke-opacity:1;stroke-miterlimit:10;" d="M 89.410156 146.390625 L 82.300781 173.554688 "/>
<path style="fill:none;stroke-width:1;stroke-linecap:butt;stroke-linejoin:miter;stroke:rgb(0%,0%,0%);stroke-opacity:1;stroke-miterlimit:10;" d="M 89.410156 146.390625 L 89.410156 146.390625 M 92.394531 146.109375 L 92.121094 145.105469 M 95.382812 145.832031 L 94.832031 143.820312 M 98.371094 145.554688 L 97.542969 142.539062 M 101.355469 145.273438 L 100.253906 141.253906 M 104.34375 144.996094 L 102.964844 139.96875 M 107.332031 144.71875 L 105.675781 138.683594 M 110.316406 144.4375 L 108.386719 137.398438 M 113.304688 144.160156 L 111.097656 136.117188 M 116.292969 143.882812 L 113.808594 134.832031 M 117.800781 143.742188 L 115.175781 134.183594 "/>
<path style="fill:none;stroke-width:1.2;stroke-linecap:butt;stroke-linejoin:miter;stroke:rgb(0%,0%,0%);stroke-opacity:1;stroke-miterlimit:10;" d="M 116.488281 138.960938 L 136.460938 158.699219 "/>
<path style="fill:none;stroke-width:1.2;stroke-linecap:butt;stroke-linejoin:miter;stroke:rgb(0%,0%,0%);stroke-opacity:1;stroke-miterlimit:10;" d="M 136.460938 158.699219 L 163.539062 151.273438 "/>
<path style="fill:none;stroke-width:1.2;stroke-linecap:butt;stroke-linejoin:miter;stroke:rgb(0%,0%,0%);stroke-opacity:1;stroke-miterlimit:10;" d="M 163.539062 151.273438 L 173.527344 161.140625 "/>
<path style="fill:none;stroke-width:1.2;stroke-linecap:butt;stroke-linejoin:miter;stroke:rgb(0%,0%,100%);stroke-opacity:1;stroke-miterlimit:10;" d="M 173.527344 161.140625 L 183.511719 171.011719 "/>
<path style="fill:none;stroke-width:1.2;stroke-linecap:butt;stroke-linejoin:miter;stroke:rgb(0%,0%,0%);stroke-opacity:1;stroke-miterlimit:10;" d="M 170.179688 148.546875 L 178.171875 156.441406 "/>
<path style="fill:none;stroke-width:1.2;stroke-linecap:butt;stroke-linejoin:miter;stroke:rgb(0%,0%,100%);stroke-opacity:1;stroke-miterlimit:10;" d="M 178.171875 156.441406 L 186.160156 164.335938 "/>
<path style="fill:none;stroke-width:1.2;stroke-linecap:butt;stroke-linejoin:miter;stroke:rgb(0%,0%,0%);stroke-opacity:1;stroke-miterlimit:10;" d="M 170.648438 124.105469 L 163.539062 151.273438 "/>
<path style="fill:none;stroke-width:1.2;stroke-linecap:butt;stroke-linejoin:miter;stroke:rgb(0%,0%,100%);stroke-opacity:1;stroke-miterlimit:10;" d="M 183.511719 171.011719 L 197.050781 167.296875 "/>
<path style="fill:none;stroke-width:1.2;stroke-linecap:butt;stroke-linejoin:miter;stroke:rgb(0%,0%,0%);stroke-opacity:1;stroke-miterlimit:10;" d="M 197.050781 167.296875 L 210.589844 163.582031 "/>
<path style=" stroke:none;fill-rule:nonzero;fill:rgb(100%,100%,100%);fill-opacity:1;" d="M 179.511719 164.511719 L 187.511719 164.511719 L 187.511719 177.511719 L 179.511719 177.511719 Z M 179.511719 164.511719 "/>
<g style="fill:rgb(0%,0%,100%);fill-opacity:1;">
  <use xlink:href="#glyph0-1" x="179.511719" y="174.413086"/>
</g>
<path style="fill:none;stroke-width:1.2;stroke-linecap:butt;stroke-linejoin:miter;stroke:rgb(0%,0%,0%);stroke-opacity:1;stroke-miterlimit:10;" d="M 210.589844 163.582031 L 230.5625 183.320312 "/>
<path style="fill:none;stroke-width:1.2;stroke-linecap:butt;stroke-linejoin:miter;stroke:rgb(0%,0%,0%);stroke-opacity:1;stroke-miterlimit:10;" d="M 217.234375 160.855469 L 233.210938 176.648438 "/>
<path style="fill:none;stroke-width:1.2;stroke-linecap:butt;stroke-linejoin:miter;stroke:rgb(0%,0%,0%);stroke-opacity:1;stroke-miterlimit:10;" d="M 217.699219 136.417969 L 210.589844 163.582031 "/>
<path style="fill:none;stroke-width:1.2;stroke-linecap:butt;stroke-linejoin:miter;stroke:rgb(0%,0%,0%);stroke-opacity:1;stroke-miterlimit:10;" d="M 230.5625 183.320312 L 257.644531 175.894531 "/>
<path style="fill:none;stroke-width:1.2;stroke-linecap:butt;stroke-linejoin:miter;stroke:rgb(0%,0%,0%);stroke-opacity:1;stroke-miterlimit:10;" d="M 257.644531 175.894531 L 264.75 148.726562 "/>
<path style="fill:none;stroke-width:1.2;stroke-linecap:butt;stroke-linejoin:miter;stroke:rgb(0%,0%,0%);stroke-opacity:1;stroke-miterlimit:10;" d="M 251.960938 171.503906 L 257.648438 149.773438 "/>
<path style="fill:none;stroke-width:1.2;stroke-linecap:butt;stroke-linejoin:miter;stroke:rgb(0%,0%,0%);stroke-opacity:1;stroke-miterlimit:10;" d="M 264.75 148.726562 L 244.777344 128.988281 "/>
<path style="fill:none;stroke-width:1.2;stroke-linecap:butt;stroke-linejoin:miter;stroke:rgb(0%,0%,0%);stroke-opacity:1;stroke-miterlimit:10;" d="M 244.777344 128.988281 L 217.699219 136.417969 "/>
<path style="fill:none;stroke-width:1.2;stroke-linecap:butt;stroke-linejoin:miter;stroke:rgb(0%,0%,0%);stroke-opacity:1;stroke-miterlimit:10;" d="M 243.816406 136.105469 L 222.152344 142.046875 "/>
<path style="fill:none;stroke-width:1.2;stroke-linecap:butt;stroke-linejoin:miter;stroke:rgb(0%,0%,0%);stroke-opacity:1;stroke-miterlimit:10;" d="M 217.699219 136.417969 L 197.726562 116.679688 "/>
<path style="fill:none;stroke-width:1.2;stroke-linecap:butt;stroke-linejoin:miter;stroke:rgb(0%,0%,0%);stroke-opacity:1;stroke-miterlimit:10;" d="M 197.726562 116.679688 L 170.648438 124.105469 "/>
<path style="fill:none;stroke-width:1.2;stroke-linecap:butt;stroke-linejoin:miter;stroke:rgb(0%,0%,0%);stroke-opacity:1;stroke-miterlimit:10;" d="M 196.765625 123.792969 L 175.101562 129.734375 "/>
</g>
</svg>

<svg xmlns="http://www.w3.org/2000/svg" xmlns:xlink="http://www.w3.org/1999/xlink" width="300pt" height="300pt" viewBox="0 0 300 300"><defs><symbol overflow="visible"><path d="M.547 1.938V-7.75h5.5v9.688zm.625-.61h4.266v-8.47H1.171zm0 0"/></symbol><symbol overflow="visible" id="a"><path d="M1.078-8.016h1.47l3.546 6.704v-6.704h1.062V0H5.688L2.124-6.703V0H1.078zm0 0"/></symbol><symbol overflow="visible" id="b"><path d="M1.078-8.016h1.094v3.282H6.11v-3.282h1.077V0H6.11v-3.813H2.17V0H1.078zm0 0"/></symbol></defs><g><path fill="#fff" d="M0 0h300v300H0z"/><path d="M55.223 180.984L35.25 161.246M82.3 173.555l-27.077 7.43M35.25 161.246l7.105-27.168M42.355 134.078l13.543-3.71" stroke-width="1.2" stroke="#000" stroke-miterlimit="10" fill="none"/><path d="M55.898 130.367l13.54-3.715M69.438 126.652l9.984 9.868" stroke-width="1.2" stroke="#00f" stroke-miterlimit="10" fill="none"/><path d="M79.422 136.52l9.988 9.87" stroke-width="1.2" stroke="#000" stroke-miterlimit="10" fill="none"/><path d="M61.438 120.152h17v13h-17zm0 0" fill="#fff"/><g fill="#00f"><use xlink:href="#a" x="61.438" y="130.054"/><use xlink:href="#b" x="69.421" y="130.054"/></g><path d="M89.41 146.39l-7.11 27.165" stroke-width="1.2" stroke="#000" stroke-miterlimit="10" fill="none"/><path d="M89.41 146.39m2.985-.28l-.274-1.005m3.263.727l-.55-2.012m3.538 1.735l-.827-3.016m3.812 2.733l-1.1-4.02m4.09 3.743l-1.38-5.027m4.367 4.75l-1.656-6.036m4.64 5.754l-1.93-7.04m4.92 6.762l-2.208-8.043m5.195 7.766l-2.484-9.05m3.99 8.91l-2.624-9.56" stroke="#000" stroke-miterlimit="10" fill="none"/><path d="M116.488 138.96l19.973 19.74M136.46 158.7l27.08-7.427M163.54 151.273l9.987 9.868" stroke-width="1.2" stroke="#000" stroke-miterlimit="10" fill="none"/><path d="M173.527 161.14l9.985 9.872" stroke-width="1.2" stroke="#00f" stroke-miterlimit="10" fill="none"/><path d="M170.18 148.547l7.992 7.894" stroke-width="1.2" stroke="#000" stroke-miterlimit="10" fill="none"/><path d="M178.172 156.44l7.988 7.896" stroke-width="1.2" stroke="#00f" stroke-miterlimit="10" fill="none"/><path d="M170.648 124.105l-7.11 27.168" stroke-width="1.2" stroke="#000" stroke-miterlimit="10" fill="none"/><path d="M183.512 171.012l13.54-3.715" stroke-width="1.2" stroke="#00f" stroke-miterlimit="10" fill="none"/><path d="M197.05 167.297l13.54-3.715" stroke-width="1.2" stroke="#000" stroke-miterlimit="10" fill="none"/><path d="M179.512 164.512h8v13h-8zm0 0" fill="#fff"/><use xlink:href="#a" x="179.512" y="174.413" fill="#00f"/><path d="M210.59 163.582l19.972 19.738M217.234 160.855l15.977 15.793M217.7 136.418l-7.11 27.164M230.563 183.32l27.082-7.425M257.645 175.895l7.105-27.168M251.96 171.504l5.688-21.73M264.75 148.727l-19.973-19.74M244.777 128.988l-27.078 7.43M243.816 136.105l-21.664 5.942M217.7 136.418l-19.973-19.738M197.727 116.68l-27.08 7.425M196.766 123.793l-21.664 5.94" stroke-width="1.2" stroke="#000" stroke-miterlimit="10" fill="none"/></g></svg>
